img/socials-yt.svg

<svg width="28" height="28" viewBox="0 0 28 28" fill="none" xmlns="http://www.w3.org/2000/svg">
<path d="M17.0015 13.7565L13.0623 11.6675C12.7764 11.5348 12.5416 11.6835 12.5416 12V16C12.5416 16.3165 12.7764 16.4652 13.0623 16.3325L17 14.2435C17.2873 14.1094 17.2873 13.8906 17.0015 13.7565ZM28 6.00004C28 2.68632 25.3136 1.83906e-05 21.9999 4.10765e-05L5.99996 0.000150613C2.68627 0.000173298 9.60691e-07 2.68646 2.14577e-06 6.00015L7.8678e-06 22C9.05288e-06 25.3137 2.6863 28 6.00001 28H22C25.3137 28 28 25.3137 28 22V6.00004ZM14 20.6875C6.83372 20.6875 4.70829 20.6875 4.70829 14C4.70829 7.3125 6.83372 7.3125 14 7.3125C21.1662 7.3125 23.2916 7.31251 23.2916 14C23.2916 20.6875 21.1662 20.6875 14 20.6875Z" fill="#EF3737"></path>
</svg>

<svg width="28" height="28" fill="none" xmlns="http://www.w3.org/2000/svg"><path d="m17.002 13.757-3.94-2.09c-.286-.132-.52.017-.52.333v4c0 .317.234.465.52.332L17 14.243c.287-.134.287-.352.002-.486ZM28 6a6 6 0 0 0-6-6H6a6 6 0 0 0-6 6v16a6 6 0 0 0 6 6h16a6 6 0 0 0 6-6V6ZM14 20.688c-7.166 0-9.292 0-9.292-6.688S6.834 7.312 14 7.312s9.292 0 9.292 6.688-2.126 6.688-9.292 6.688Z" fill="#EF3737"/></svg>
